src/images/Icons/11_kettle.svg

<?xml version="1.0" encoding="UTF-8"?>
<svg width="20px" height="21px" viewBox="0 0 20 21" version="1.1" xmlns="http://www.w3.org/2000/svg" xmlns:xlink="http://www.w3.org/1999/xlink">
    <!-- Generator: Sketch 51.3 (57544) - http://www.bohemiancoding.com/sketch -->
    <title>Group 8</title>
    <desc>Created with Sketch.</desc>
    <defs>
        <polygon id="path-1" points="2.05847579e-05 0.0519824561 19.9417544 0.0519824561 19.9417544 20.7017544 2.05847579e-05 20.7017544"></polygon>
    </defs>
    <g id="Welcome" stroke="none" stroke-width="1" fill="none" fill-rule="evenodd">
        <g id="CLanding" transform="translate(-1014.000000, -2664.000000)">
            <g id="Facilities" transform="translate(0.000000, 2129.000000)">
                <g id="Group-5" transform="translate(810.000000, 325.000000)">
                    <g id="Group-20">
                        <g id="Group-8" transform="translate(204.000000, 210.000000)">
                            <path d="M7.62014035,13.5919298 L8.39136842,13.5919298 C8.6994386,13.5919298 8.9494386,13.3419298 8.9494386,13.0338596 C8.9494386,12.725614 8.6994386,12.475614 8.39136842,12.475614 L7.61575439,12.475614 L7.61575439,11.5584211 L8.39136842,11.5584211 C8.6994386,11.5584211 8.9494386,11.3084211 8.9494386,11.0003509 C8.9494386,10.6921053 8.6994386,10.4421053 8.39136842,10.4421053 L7.61575439,10.4421053 L7.61575439,9.52491228 L8.39136842,9.52491228 C8.6994386,9.52491228 8.9494386,9.27491228 8.9494386,8.96684211 C8.9494386,8.65859649 8.6994386,8.40859649 8.39136842,8.40859649 L7.62014035,8.40859649 C7.64364912,7.83964912 8.11049123,7.38298246 8.68505263,7.38298246 L8.73961404,7.38298246 C9.32908772,7.38298246 9.80873684,7.86263158 9.80873684,8.4522807 L9.80873684,13.5485965 C9.80873684,14.1382456 9.32908772,14.6178947 8.73961404,14.6178947 L8.68505263,14.6178947 C8.11031579,14.6178947 7.64347368,14.1610526 7.62014035,13.5919298 Z M8.73961404,15.7342105 C9.94452632,15.7342105 10.9250526,14.7536842 10.9250526,13.5485965 L10.9250526,8.4522807 C10.9250526,7.24719298 9.94452632,6.26666667 8.73961404,6.26666667 L8.68505263,6.26666667 C7.47996491,6.26666667 6.49961404,7.24719298 6.49961404,8.4522807 L6.49961404,13.5485965 C6.49961404,14.7536842 7.47996491,15.7342105 8.68505263,15.7342105 L8.73961404,15.7342105 Z" id="Fill-1" fill="#1D1D1B"></path>
                            <path d="M14.7022807,6.29024561 C15.9431579,6.64375439 16.8275439,7.77936842 16.8275439,9.11410526 C16.8275439,10.249193 16.1729825,11.2641053 15.1831579,11.7502456 L14.7022807,6.29024561 Z M17.9438596,9.11410526 C17.9438596,7.12831579 16.5245614,5.46322807 14.5996491,5.12445614 L14.4440351,5.10901754 C14.2801754,5.092 13.9712281,5.06498246 13.477193,5.10252632 L14.1833333,13.1218246 C14.7015789,13.0735789 15.0801754,12.984807 15.3340351,12.9000702 C16.8891228,12.3070877 17.9438596,10.8072632 17.9438596,9.11410526 Z" id="Fill-3" fill="#1D1D1B"></path>
                            <g id="Group-7" transform="translate(0.000000, 0.123509)">
                                <mask id="mask-2" fill="white">
                                    <use xlink:href="#path-1"></use>
                                </mask>
                                <g id="Clip-6"></g>
                                <path d="M14.6233509,19.5854912 L2.63598246,19.5854912 L2.63685965,18.3963684 L14.6252807,18.3963684 L14.6233509,19.5854912 Z M19.9417719,8.99268421 C19.9417719,5.81952632 17.4738772,3.17163158 14.4042281,2.87759649 C14.3891404,2.84882456 14.3519474,2.82040351 14.3312456,2.79391228 C12.9894912,1.07707018 10.8780877,0.0519824561 8.68247368,0.0519824561 C6.70914035,0.0519824561 4.54001754,1.08935088 3.11633333,2.70163158 L0.558087719,2.70163158 C0.347561404,2.70163158 0.154754386,2.82005263 0.0600175439,3.00812281 C-0.0350701754,3.19619298 -0.0159473684,3.42145614 0.108964912,3.59110526 L2.34685965,6.62461404 L1.62721053,16.3335614 L2.74650877,16.3335614 L3.4752807,6.50092982 C3.4852807,6.36794737 3.44703509,6.23566667 3.36773684,6.12829825 L1.66352632,3.81777193 L6.68545614,3.81777193 C6.99370175,3.81777193 7.24370175,3.56794737 7.24370175,3.25970175 C7.24370175,2.95145614 6.99370175,2.70163158 6.68545614,2.70163158 L4.723,2.70163158 C5.72036842,1.88478947 7.13001754,1.16829825 8.68247368,1.16829825 C10.4712456,1.16829825 12.1910702,1.97496491 13.3263333,3.33180702 L13.3261579,3.33022807 C13.3261579,3.33022807 13.3337018,3.33987719 13.3400175,3.34759649 C13.3435263,3.35198246 13.347386,3.35584211 13.3510702,3.36022807 L13.3510702,3.36057895 C13.4533509,3.48198246 13.8563333,3.94145614 14.608614,4.02864912 L14.6445789,4.03829825 C17.0275614,4.44636842 18.8254561,6.5212807 18.8254561,8.99268421 C18.8254561,10.921807 17.7077368,12.6509298 16.0428246,13.4888246 L15.9740526,13.5219825 C15.3770351,13.8554912 14.6159825,13.963386 14.2724737,14.0086491 L14.5605439,17.2800526 L1.55615789,17.2812807 L1.51896491,17.9142632 L1.52370175,20.1475965 C1.52580702,20.4542632 1.77492982,20.701807 2.08177193,20.701807 L15.1849298,20.701807 C15.3335263,20.701807 15.4759825,20.6425088 15.5807193,20.5372456 C15.6856316,20.431807 15.7438772,20.289 15.743,20.1404035 L15.7382632,17.849 C15.7382632,17.8337368 15.7375614,17.8184737 15.7361579,17.803386 L15.4719474,14.9053158 C18.0842281,14.163386 19.9417719,11.7423333 19.9417719,8.99268421 Z" id="Fill-5" fill="#1D1D1B" mask="url(#mask-2)"></path>
                            </g>
                        </g>
                    </g>
                </g>
            </g>
        </g>
    </g>
</svg>

<svg width="20" height="21" viewBox="0 0 20 21" xmlns="http://www.w3.org/2000/svg" xmlns:xlink="http://www.w3.org/1999/xlink"><defs><path id="a" d="M0 .052h19.942v20.65H0z"/></defs><g fill="none" fill-rule="evenodd"><path d="M7.62 13.592h.771a.558.558 0 000-1.116h-.775v-.918h.775a.558.558 0 000-1.116h-.775v-.917h.775a.558.558 0 000-1.116h-.77a1.068 1.068 0 011.064-1.026h.055c.59 0 1.069.48 1.069 1.07v5.096c0 .59-.48 1.069-1.07 1.069h-.054a1.068 1.068 0 01-1.065-1.026zm1.12 2.142c1.205 0 2.185-.98 2.185-2.185V8.452c0-1.205-.98-2.185-2.185-2.185h-.055c-1.205 0-2.185.98-2.185 2.185v5.097c0 1.205.98 2.185 2.185 2.185h.055zm5.962-9.444a2.93 2.93 0 012.126 2.824c0 1.135-.655 2.15-1.645 2.636l-.48-5.46zm3.242 2.824c0-1.986-1.42-3.65-3.344-3.99l-.156-.015a5.141 5.141 0 00-.967-.006l.706 8.019a5.209 5.209 0 001.151-.222 4.057 4.057 0 002.61-3.786z" fill="#1D1D1B"/><g transform="translate(0 .124)"><mask id="b" fill="#fff"><use xlink:href="#a"/></mask><path d="M14.623 19.585H2.636v-1.189h11.99l-.003 1.19zm5.319-10.592c0-3.173-2.468-5.821-5.538-6.115-.015-.03-.052-.058-.073-.084A7.214 7.214 0 008.682.052c-1.973 0-4.142 1.037-5.566 2.65H.558a.558.558 0 00-.449.89l2.238 3.033-.72 9.709h1.12L3.475 6.5a.557.557 0 00-.107-.373l-1.704-2.31h5.021a.558.558 0 100-1.116H4.723c.997-.817 2.407-1.534 3.96-1.534a6.09 6.09 0 014.643 2.164V3.33l.014.018.011.012c.102.122.505.581 1.258.669l.036.01a5.035 5.035 0 014.18 4.954 5.056 5.056 0 01-2.782 4.496l-.069.033c-.597.333-1.358.441-1.702.487l.289 3.271-13.005.001-.037.633.005 2.234a.558.558 0 00.558.554h13.103a.558.558 0 00.558-.562l-.005-2.291c0-.015 0-.03-.002-.046l-.264-2.898a6.176 6.176 0 004.47-5.912z" fill="#1D1D1B" mask="url(#b)"/></g></g></svg>
